X:82
T:Lady Petersham's Will. JJo8.082
B:J.Johnson Choice Collection Vol 8 1758
Z:vmp.Simon Wilson 2013 www.village-music-project.org.uk
M:2/4
L:1/8
Q:1/4=120
N:Could easily be in 6/8.
K:C
c>c"^tr"G2|A>A F>E|D>f f>e|(3dec (3BAG|
c>c"^tr"G2|A>A F>E|(3Dfe (3dcB|c2C2:|
e>f (3g>ag|(3f>gf| (3e>de|e>f (3g>ag|{g}"^tr"f2e2|
e>f (3g>ag|(3f>gf (3e>de|d>c (3d>cB|c2C2:|
